svgs/sharp-light/square-p.svg

<svg xmlns="http://www.w3.org/2000/svg" viewBox="0 0 448 512"><!--! Font Awesome Pro 6.6.0 by @fontawesome - https://fontawesome.com License - https://fontawesome.com/license (Commercial License) Copyright 2024 Fonticons, Inc. --><path d="M32 64l0 384 384 0 0-384L32 64zM0 32l32 0 384 0 32 0 0 32 0 384 0 32-32 0L32 480 0 480l0-32L0 64 0 32zm144 96l88 0c48.6 0 88 39.4 88 88l0 16-1.5 0c-7.5 41-43.4 72-86.5 72l-72 0 0 64 0 16-32 0 0-16 0-80 0-144 0-16 16 0zm88 144c30.9 0 56-25.1 56-56s-25.1-56-56-56l-72 0 0 112 72 0z"/></svg>

<svg xmlns="http://www.w3.org/2000/svg" viewBox="0 0 448 512"><!--! Font Awesome Pro 6.4.0 by @fontawesome - https://fontawesome.com License - https://fontawesome.com/license (Commercial License) Copyright 2023 Fonticons, Inc. --><path d="M32 64V448H416V64H32zM0 32H32 416h32V64 448v32H416 32 0V448 64 32zm144 96h88c48.6 0 88 39.4 88 88s-39.4 88-88 88H160v64 16H128V368 288 144 128h16zm88 144c30.9 0 56-25.1 56-56s-25.1-56-56-56H160V272h72z"/></svg>
